Adwaita++/actions/scalable/media-optical-data-new.svg

<svg height="64" width="64" xmlns="http://www.w3.org/2000/svg">
  <defs>
    <linearGradient gradientUnits="userSpaceOnUse" x1="48.163178" x2="48.163178" y1="57.0623" y2="34.589616">
      <stop offset="0" stop-color="#e72662"/>
      <stop offset=".48271722" stop-color="#ec3c50"/>
      <stop offset="1" stop-color="#ff7b66"/>
    </linearGradient>
  </defs>
  <path d="m32 5c-15.512 0-28 12.488-28 28s12.488 28 28 28 28-12.488 28-28-12.488-28-28-28zm0 16a12 12 0 0 1 12 12 12 12 0 0 1 -12 12 12 12 0 0 1 -12-12 12 12 0 0 1 12-12z" opacity=".2"/>
  <path d="m32 17a15 15 0 0 0 -15 15 15 15 0 0 0 15 15 15 15 0 0 0 15-15 15 15 0 0 0 -15-15zm0 9c3.3138 0 6 2.6862 6 6s-2.6862 6-6 6-6-2.6862-6-6 2.6862-6 6-6z" fill="#858585"/>
  <path d="m32 4c-15.512 0-28 12.488-28 28s12.488 28 28 28 28-12.488 28-28-12.488-28-28-28zm0 16a12 12 0 0 1 12 12 12 12 0 0 1 -12 12 12 12 0 0 1 -12-12 12 12 0 0 1 12-12z" fill="#e4e4e4"/>
  <path d="m20.025391 32.5a12 12 0 0 0 -.025391.5 12 12 0 0 0 12 12 12 12 0 0 0 12-12 12 12 0 0 0 -.021484-.404297 12 12 0 0 1 -11.978516 11.404297 12 12 0 0 1 -11.974609-11.5zm11.974609-28.5c-15.512 0-28 12.488-28 28 0 .11345.01128.224113.017578.335938.3515433-15.201757 12.69315-27.335938 27.982422-27.335938s27.630879 12.134181 27.982422 27.335938c.006298-.111825.017578-.222488.017578-.335938 0-15.512-12.488-28-28-28z" fill="#fff" opacity=".2"/>
  <circle cx="48" cy="46" fill="#f34e1c" r="16"/>
  <path d="m32.025391 46.5a16 16.001894 0 0 0 -.025391.498106 16 16.001894 0 0 0 16 16.001894 16 16.001894 0 0 0 16-16.001894 16 16.001894 0 0 0 -.017578-.492246 16 16.001894 0 0 1 -15.982422 15.494022 16 16.001894 0 0 1 -15.974609-15.499882z" opacity=".2"/>
  <path d="m473 180v16h9 .75l4.25-4.25v-.75-11zm1 1h12v10h-4v4h-8zm2 2v1h8v-1zm0 2v1h8v-1zm0 2v1h8v-1zm0 2v1h3v-1z" fill="#fefefe" transform="translate(-432 -142)"/>
</svg>

<?xml version="1.0" encoding="UTF-8" standalone="no"?>
<svg
   xmlns:dc="http://purl.org/dc/elements/1.1/"
   xmlns:cc="http://creativecommons.org/ns#"
   xmlns:rdf="http://www.w3.org/1999/02/22-rdf-syntax-ns#"
   xmlns:svg="http://www.w3.org/2000/svg"
   xmlns="http://www.w3.org/2000/svg"
   xmlns:sodipodi="http://sodipodi.sourceforge.net/DTD/sodipodi-0.dtd"
   xmlns:inkscape="http://www.inkscape.org/namespaces/inkscape"
   width="64"
   height="64"
   version="1.1"
   id="svg16"
   sodipodi:docname="media-optical-data-new.svg"
   inkscape:version="0.92.3 (2405546, 2018-03-11)">
  <metadata
     id="metadata22">
    <rdf:RDF>
      <cc:Work
         rdf:about="">
        <dc:format>image/svg+xml</dc:format>
        <dc:type
           rdf:resource="http://purl.org/dc/dcmitype/StillImage" />
        <dc:title></dc:title>
      </cc:Work>
    </rdf:RDF>
  </metadata>
  <defs
     id="defs20">
    <linearGradient
       id="linearGradient934"
       x1="592"
       x2="592"
       y1="204"
       y2="-4"
       gradientTransform="matrix(0.10804175,0,0,0.10804175,-15.797538,35.021783)"
       gradientUnits="userSpaceOnUse">
      <stop
         style="stop-color:#e72662"
         offset="0"
         id="stop35" />
      <stop
         style="stop-color:#ec3c50"
         offset=".48271722"
         id="stop37" />
      <stop
         style="stop-color:#ff7b66"
         offset="1"
         id="stop39" />
    </linearGradient>
  </defs>
  <sodipodi:namedview
     pagecolor="#ffffff"
     bordercolor="#666666"
     borderopacity="1"
     objecttolerance="10"
     gridtolerance="10"
     guidetolerance="10"
     inkscape:pageopacity="0"
     inkscape:pageshadow="2"
     inkscape:window-width="1920"
     inkscape:window-height="1009"
     id="namedview18"
     showgrid="false"
     inkscape:zoom="13.046875"
     inkscape:cx="16.938922"
     inkscape:cy="32"
     inkscape:window-x="0"
     inkscape:window-y="34"
     inkscape:window-maximized="1"
     inkscape:current-layer="svg16" />
  <path
     style="opacity:0.2"
     d="M 32,5 C 16.488,5 4,17.488 4,33 4,48.512 16.488,61 32,61 47.512,61 60,48.512 60,33 60,17.488 47.512,5 32,5 Z m 0,16 A 12,12 0 0 1 44,33 12,12 0 0 1 32,45 12,12 0 0 1 20,33 12,12 0 0 1 32,21 Z"
     id="path2" />
  <path
     style="fill:#858585"
     d="M 32,17 A 15,15 0 0 0 17,32 15,15 0 0 0 32,47 15,15 0 0 0 47,32 15,15 0 0 0 32,17 Z m 0,9 c 3.3138,0 6,2.6862 6,6 0,3.3138 -2.6862,6 -6,6 -3.3138,0 -6,-2.6862 -6,-6 0,-3.3138 2.6862,-6 6,-6 z"
     id="path4" />
  <path
     style="fill:#e4e4e4"
     d="M 32,4 C 16.488,4 4,16.488 4,32 4,47.512 16.488,60 32,60 47.512,60 60,47.512 60,32 60,16.488 47.512,4 32,4 Z m 0,16 A 12,12 0 0 1 44,32 12,12 0 0 1 32,44 12,12 0 0 1 20,32 12,12 0 0 1 32,20 Z"
     id="path6" />
  <path
     style="opacity:0.2;fill:#ffffff"
     d="M 20.025391,32.5 A 12,12 0 0 0 20,33 12,12 0 0 0 32,45 12,12 0 0 0 44,33 12,12 0 0 0 43.978516,32.595703 12,12 0 0 1 32,44 12,12 0 0 1 20.025391,32.5 Z M 32,4 C 16.488,4 4,16.488 4,32 c 0,0.11345 0.01128,0.224113 0.017578,0.335938 C 4.3691213,17.134181 16.710728,5 32,5 47.289272,5 59.630879,17.134181 59.982422,32.335938 59.98872,32.224113 60,32.11345 60,32 60,16.488 47.512,4 32,4 Z"
     id="path8" />
  <circle
     style="fill:#f34e1c;fill-opacity:1"
     cx="48"
     cy="46"
     r="16"
     id="circle10" />
  <path
     style="opacity:0.2"
     d="M 32.025391,46.5 A 16,16.001894 0 0 0 32,46.998106 16,16.001894 0 0 0 48,63 16,16.001894 0 0 0 64,46.998106 16,16.001894 0 0 0 63.982422,46.50586 16,16.001894 0 0 1 48,61.999882 16,16.001894 0 0 1 32.025391,46.5 Z"
     id="path14" />
  <g
     transform="translate(-432,-142)"
     id="g4"
     style="fill:#fefefe;fill-opacity:1">
    <path
       inkscape:connector-curvature="0"
       d="m 473,180 v 16 h 9 0.75 L 487,191.75 V 191 180 Z m 1,1 h 12 v 10 h -4 v 4 h -8 z m 2,2 v 1 h 8 v -1 z m 0,2 v 1 h 8 v -1 z m 0,2 v 1 h 8 v -1 z m 0,2 v 1 h 3 v -1 z"
       style="fill:#fefefe;fill-opacity:1"
       id="path2-3" />
  </g>
</svg>
